img/arrow-prev-primary.svg

<svg width="10" height="18" viewBox="0 0 10 18" fill="none" xmlns="http://www.w3.org/2000/svg">
<path fill-rule="evenodd" clip-rule="evenodd" d="M9.63388 0.616117C10.122 1.10427 10.122 1.89573 9.63388 2.38388L3.01777 9L9.63388 15.6161C10.122 16.1043 10.122 16.8957 9.63388 17.3839C9.14573 17.872 8.35427 17.872 7.86612 17.3839L0.366117 9.88388C-0.122039 9.39573 -0.122039 8.60427 0.366117 8.11612L7.86612 0.616117C8.35427 0.127961 9.14573 0.127961 9.63388 0.616117Z" fill="#828282"/>
</svg>

<svg width="10" height="18" viewBox="0 0 10 18" xmlns="http://www.w3.org/2000/svg" fill="none"><path fill-rule="evenodd" clip-rule="evenodd" d="M9.634.616c.488.488.488 1.28 0 1.768l-6.616 6.616 6.616 6.616c.488.488.488 1.28 0 1.768s-1.28.488-1.768 0l-7.5-7.5c-.488-.488-.488-1.28 0-1.768l7.5-7.5c.488-.488 1.28-.488 1.768 0z" fill="#828282"/></svg>
